X: 28347
T: Muineira De Cabana
R: jig
M: 6/8
K: Eminor
|:e2c|BcB AFA|GFE E^DE|FGA Bc=d|c2B e2c|
BcB AFA|GFE E^DE|FGA AGF|1 E2B:|2 E2B||
|:EFG|EFE E^DE|F2F FGA|BeG AeF|GFE EFG|
EFE E^DE|F2F FGA|BcB AGF|1 E2B:|2 EFE||
K:Emaj
|:^GAB|BGE cAc|BGE GFE|DFA cAc|BGE GAB|
BGE cAc|BGE GFE|DcB AGF|1 EFE:|2 E3||

